X: 1
T: The Rose Tree
R: polka
M: 4/4
L: 1/4
K: Dmaj
f/e/|:"D"dB AF|A>B AB|d2 ed/e/|"A"fe ef/e/|
      "D"dB AF|A>B AB|d2 ed/e/|"A"fd "D"d2:|
|:"D"fe fg|a2 gf|"Em"eb ba|"A"be ef/e/|
      "D"dB AF|A>B AB|d2 ed/e/|"A"fd "D"d2:|

